X: 1
T: Down By The Sally Gardens
M: 4/4
L: 1/8
Z: Contributed 2016-03-25 22:52:54 by R Winn rwinn@infovisions.org
K: Dmaj
DE|"D" F2ED "A" E2 FA|"G" B4 "D" A2 dA|"G" B2 AF "A" E3 D|"D" D4 z2DE|
"D" F2ED "A" E2 FA|"G" B4 "D" A2 dA|"G" B2 AF "A" E3 D|"D" D4 z2 A2||
|"D" d2 cA "G" B2 cd|"A" c2 cB A2 FA|"Bm" B2 AF "G" ABde|"D" d4 z2 DE|
"D" F2ED "A" E2 FA| "G" B4 "D" A2 dA| "G" B2 AF "A" E3 D| "D" D4 z2||
